suite-common/icons/assets/icons/eyeClosed.svg

<svg xmlns="http://www.w3.org/2000/svg" fill="none" viewBox="0 0 17 17">
  <path fill="#000" fill-rule="evenodd" d="M2.203 6.414a.75.75 0 0 0-.464.492c-.121.404-.004.611.815 1.438l.392.397-.583 1.02c-.321.561-.602 1.069-.623 1.13a.73.73 0 0 0 .183.753.73.73 0 0 0 .777.183c.244-.083.322-.187.9-1.202.297-.521.545-.952.549-.957s.154.072.332.172c.398.223.788.402 1.214.558.179.065.329.122.334.127a33 33 0 0 1-.165 1.038c-.118.7-.168 1.071-.157 1.154a.753.753 0 0 0 1.422.226c.023-.046.119-.538.213-1.094.093-.555.172-1.013.176-1.016.003-.004.219.007.479.024.342.022.597.022.92 0 .245-.018.454-.022.464-.011.009.011.09.459.178.995.089.537.184 1.028.212 1.091a.82.82 0 0 0 .354.364c.164.087.495.087.656.001a.76.76 0 0 0 .41-.66c0-.086-.074-.599-.165-1.139l-.165-.983.229-.076a8 8 0 0 0 1.391-.634c.138-.08.26-.135.272-.123s.258.436.547.942c.29.505.568.962.619 1.015.21.219.541.291.808.176a.9.9 0 0 0 .419-.416 1 1 0 0 0 .047-.281c.001-.211.017-.179-.655-1.353-.284-.496-.53-.931-.546-.967-.027-.059-.008-.086.204-.288.337-.321.865-.931.936-1.083a.86.86 0 0 0 .011-.592.9.9 0 0 0-.367-.384c-.087-.046-.163-.061-.326-.061-.284 0-.39.06-.668.374-.791.892-1.535 1.493-2.365 1.91a6.67 6.67 0 0 1-4.347.558C5.606 8.931 4.267 8.1 3.166 6.81c-.174-.204-.283-.306-.376-.35-.163-.079-.441-.101-.587-.046"/>
</svg>

<svg xmlns="http://www.w3.org/2000/svg" fill="none" viewBox="0 0 17 17"><path d="M2.203 6.414 C 1.977 6.498,1.808 6.677,1.739 6.906 C 1.618 7.310,1.735 7.517,2.554 8.344 L 2.946 8.741 2.363 9.761 C 2.042 10.322,1.761 10.830,1.740 10.891 C 1.649 11.143,1.722 11.443,1.923 11.644 C 2.136 11.857,2.417 11.923,2.700 11.827 C 2.944 11.744,3.022 11.640,3.600 10.625 C 3.897 10.104,4.145 9.673,4.149 9.668 C 4.154 9.663,4.303 9.740,4.481 9.840 C 4.879 10.063,5.269 10.242,5.695 10.398 C 5.874 10.463,6.024 10.520,6.029 10.525 C 6.033 10.529,5.959 10.996,5.864 11.563 C 5.746 12.263,5.696 12.634,5.707 12.717 C 5.744 13.001,5.959 13.256,6.227 13.334 C 6.593 13.441,6.952 13.285,7.129 12.943 C 7.152 12.897,7.248 12.405,7.342 11.849 C 7.435 11.294,7.514 10.836,7.518 10.833 C 7.521 10.829,7.737 10.840,7.997 10.857 C 8.339 10.879,8.594 10.879,8.917 10.857 C 9.162 10.839,9.371 10.835,9.381 10.846 C 9.390 10.857,9.471 11.305,9.559 11.841 C 9.648 12.378,9.743 12.869,9.771 12.932 C 9.834 13.074,9.970 13.213,10.125 13.296 C 10.289 13.383,10.620 13.383,10.781 13.297 C 11.031 13.164,11.190 12.906,11.191 12.637 C 11.191 12.551,11.117 12.038,11.026 11.498 L 10.861 10.515 11.090 10.439 C 11.529 10.293,12.026 10.067,12.481 9.805 C 12.619 9.725,12.741 9.670,12.753 9.682 C 12.765 9.694,13.011 10.118,13.300 10.624 C 13.590 11.129,13.868 11.586,13.919 11.639 C 14.129 11.858,14.460 11.930,14.727 11.815 C 14.892 11.744,15.076 11.561,15.146 11.399 C 15.171 11.340,15.192 11.213,15.193 11.118 C 15.194 10.907,15.210 10.939,14.538 9.765 C 14.254 9.269,14.008 8.834,13.992 8.798 C 13.965 8.739,13.984 8.712,14.196 8.510 C 14.533 8.189,15.061 7.579,15.132 7.427 C 15.205 7.272,15.210 6.996,15.143 6.835 C 15.088 6.702,14.923 6.530,14.776 6.451 C 14.689 6.405,14.613 6.390,14.450 6.390 C 14.166 6.390,14.060 6.450,13.782 6.764 C 12.991 7.656,12.247 8.257,11.417 8.674 C 10.088 9.342,8.557 9.539,7.070 9.232 C 5.606 8.931,4.267 8.100,3.166 6.810 C 2.992 6.606,2.883 6.504,2.790 6.460 C 2.627 6.381,2.349 6.359,2.203 6.414 " stroke="none" fill-rule="evenodd" fill="black"></path></svg>
